Hatter-kde-dark/actions/16/choice-rhomb.svg

<svg xmlns="http://www.w3.org/2000/svg" viewBox="0 0 16 16">
  <defs id="defs3051">
    <style type="text/css" id="current-color-scheme">
      .ColorScheme-Text {
        color:#dedede;
      }
      </style>
  </defs>
 <path style="fill:currentColor;fill-opacity:1;stroke:none" 
     d="M 8 2 L 2 8 L 8 14 L 14 8 L 8 2 z M 8 3.4140625 L 12.585938 8 L 8 12.585938 L 3.4140625 8 L 8 3.4140625 z "
     class="ColorScheme-Text"
     />
</svg>

<?xml version="1.0" encoding="UTF-8"?>
<svg viewBox="0 0 16 16" xmlns="http://www.w3.org/2000/svg">
 <defs id="defs3051">
  <style id="current-color-scheme" type="text/css">.ColorScheme-Text {
        color:#dedede;
      }</style>
 </defs>
 <path class="ColorScheme-Text" d="m8 2-6 6 6 6 6-6-6-6zm0 1.4141 4.5859 4.5859-4.5859 4.5859-4.5859-4.5859 4.5859-4.5859z" fill="currentColor"/>
</svg>
